X:1
T:Title
%%score [ ( 1 2 ) ( 3 4 ) ]
L:1/8
Q:1/4=240
M:4/4
K:E
V:1 treble nm="Midi_74"
V:2 treble 
V:3 bass nm="Midi_74"
V:4 bass 
V:1
 E8 | G4 ^A4 | B8 || c8 | d4 e4 | B6 A2 |"^Henry Smart\n(1813-79)" G8 |] %7
V:2
 B,8 | E4 E4 | D8 || F8 | F4 E4 | F4 D4 | E8 |] %7
V:3
 G,8 | C4 C4 | F,8 || =A,8 | A,4 G,4 | F,4 B,4 | B,8 |] %7
V:4
 E,8 | C,4 C,4 | B,,8 || F,8 | B,,4 C,4 | D,4 B,,4 | E,8 |] %7

